src/main/resources/static/assets/icons/google.svg

<?xml version="1.0" encoding="UTF-8"?>
<svg width="465.2" height="631.32" version="1.1" viewBox="0 0 465.2 631.32" xml:space="preserve" xmlns="http://www.w3.org/2000/svg" xmlns:cc="http://creativecommons.org/ns#" xmlns:dc="http://purl.org/dc/elements/1.1/" xmlns:rdf="http://www.w3.org/1999/02/22-rdf-syntax-ns#"><metadata><rdf:RDF><cc:Work rdf:about=""><dc:format>image/svg+xml</dc:format><dc:type rdf:resource="http://purl.org/dc/dcmitype/StillImage"/><dc:title/></cc:Work></rdf:RDF></metadata><defs><clipPath id="clipPath875"><path d="m0 0h3489v4735h-3489z"/></clipPath><clipPath id="clipPath881"><path d="m3489 2914.3c0 126.22-11.32 247.6-32.37 364.11h-1676.5v-688.58h958.03c-41.27-222.51-166.69-411.05-355.21-537.27v-446.65h575.29c336.61 309.91 530.8 766.26 530.8 1308.4z" clip-rule="evenodd"/></clipPath><clipPath id="clipPath891"><path d="m1780.1 1174.6c480.63 0 883.59 159.4 1178.1 431.27l-575.29 446.65c-159.41-106.81-363.31-169.92-602.82-169.92-463.64 0-856.08 313.14-996.05 733.9h-594.72v-461.22c292.91-581.78 894.9-980.68 1590.8-980.68z" clip-rule="evenodd"/></clipPath><clipPath id="clipPath901"><path d="m784.06 2616.5c-35.61 106.8-55.836 220.89-55.836 338.22 0 117.32 20.226 231.41 55.836 338.22v461.2h-594.72c-120.57-240.31-189.34-512.18-189.34-799.42 0-287.25 68.773-559.13 189.34-799.44l594.72 461.22z" clip-rule="evenodd"/></clipPath><clipPath id="clipPath911"><path d="m1780.1 4026.9c261.35 0 496.01-89.82 680.49-266.21l510.57 510.57c-308.29 287.24-711.24 463.64-1191.1 463.64-695.87 0-1297.9-398.91-1590.8-980.69l594.72-461.2c139.98 420.75 532.41 733.89 996.05 733.89z" clip-rule="evenodd"/></clipPath></defs><g transform="matrix(1.3333 0 0 -1.3333 0 631.32)"><g transform="scale(.1)"><path d="m838.89 70.352c-13.43 0-26.532 2.1992-39.301 6.5976-12.774 4.4102-23.777 10.793-33.027 19.16l10.234 15.2c9.687-7.93 19.543-13.879 29.562-17.84 10.02-3.9688 20.75-5.9493 32.2-5.9493 13.875 0 24.937 2.8125 33.195 8.4297 8.258 5.6098 12.387 13.59 12.387 23.942 0 4.851-1.102 8.859-3.301 12.05-2.207 3.2-5.453 6-9.746 8.43-4.293 2.418-9.692 4.559-16.18 6.438-6.5 1.871-14.039 3.8-22.629 5.781-9.906 2.422-18.496 4.84-25.762 7.262-7.265 2.429-13.265 5.179-17.996 8.269-4.738 3.07-8.257 6.871-10.574 11.391-2.308 4.5-3.465 10.179-3.465 17 0 8.597 1.703 16.199 5.117 22.797 3.415 6.601 8.036 12.05 13.872 16.343 5.836 4.297 12.66 7.539 20.48 9.75 7.813 2.2 16.129 3.297 24.934 3.297 13.214 0 25.211-2.148 36.004-6.437 10.785-4.293 19.484-9.961 26.093-17.012l-10.898-13.211c-6.395 6.602-14.152 11.563-23.289 14.863-9.141 3.309-18.66 4.957-28.567 4.957-5.949 0-11.453-0.609-16.515-1.82-5.067-1.207-9.528-3.137-13.379-5.777-3.852-2.641-6.883-6-9.082-10.071-2.203-4.082-3.301-8.871-3.301-14.371 0-4.621 0.766-8.371 2.309-11.23 1.539-2.871 4.074-5.34 7.597-7.43 3.524-2.101 7.981-3.961 13.375-5.609 5.395-1.649 11.946-3.36 19.653-5.129 11.007-2.641 20.695-5.281 29.07-7.922 8.363-2.648 15.355-5.73 20.969-9.25 5.617-3.52 9.851-7.82 12.715-12.879 2.859-5.07 4.293-11.23 4.293-18.492 0-15.859-6.055-28.41-18.165-37.66-12.113-9.25-28.402-13.867-48.882-13.867" style="fill:#fff"/><path d="m1080.3 168.77c-0.67 9.25-2.81 17.679-6.44 25.269-3.64 7.602-8.26 14.141-13.87 19.652-5.62 5.5-12.12 9.801-19.49 12.879-7.38 3.078-15.25 4.621-23.62 4.621s-16.29-1.543-23.781-4.621c-7.484-3.078-14.035-7.379-19.649-12.879-5.613-5.511-10.128-12.109-13.542-19.812-3.415-7.719-5.45-16.078-6.11-25.109zm-63.42-98.418c-12.55 0-24.058 2.3672-34.512 7.0976-10.46 4.7422-19.546 11.23-27.25 19.48-7.71 8.2693-13.707 17.789-18 28.582-4.293 10.777-6.437 22.34-6.437 34.679 0 12.11 2.144 23.5 6.437 34.18s10.239 20.031 17.836 28.07c7.594 8.039 16.684 14.43 27.246 19.161 10.575 4.73 22.02 7.097 34.35 7.097 12.55 0 24.06-2.367 34.51-7.097 10.46-4.731 19.44-11.18 26.92-19.321 7.49-8.152 13.32-17.5 17.51-28.07 4.18-10.582 6.27-21.813 6.27-33.691v-5.29c0-1.761-0.11-2.968-0.32-3.628h-147.31c0.66-9.25 2.809-17.782 6.442-25.59 3.632-7.832 8.304-14.59 14.031-20.321 5.722-5.7301 12.277-10.191 19.656-13.371 7.371-3.1992 15.241-4.8008 23.611-4.8008 5.5 0 11.01 0.7696 16.51 2.3125 5.51 1.5469 10.58 3.6368 15.2 6.2774s8.8 5.8906 12.55 9.7496c3.74 3.852 6.61 8.09 8.59 12.711l19.48-5.289c-2.64-6.379-6.39-12.172-11.23-17.332-4.84-5.1797-10.45-9.6992-16.84-13.551-6.39-3.8476-13.43-6.8164-21.14-8.9062-7.71-2.0899-15.74-3.1406-24.11-3.1406" style="fill:#fff"/><path d="m1274.2 168.77c-0.66 9.25-2.81 17.679-6.44 25.269-3.63 7.602-8.26 14.141-13.87 19.652-5.62 5.5-12.12 9.801-19.49 12.879-7.38 3.078-15.25 4.621-23.62 4.621s-16.29-1.543-23.78-4.621c-7.48-3.078-14.04-7.379-19.65-12.879-5.61-5.511-10.13-12.109-13.54-19.812-3.41-7.719-5.45-16.078-6.11-25.109zm-63.42-98.418c-12.55 0-24.06 2.3672-34.51 7.0976-10.46 4.7422-19.55 11.23-27.25 19.48-7.71 8.2693-13.71 17.789-18 28.582-4.29 10.777-6.44 22.34-6.44 34.679 0 12.11 2.15 23.5 6.44 34.18s10.24 20.031 17.84 28.07c7.59 8.039 16.68 14.43 27.24 19.161 10.58 4.73 22.02 7.097 34.35 7.097 12.55 0 24.06-2.367 34.52-7.097 10.46-4.731 19.43-11.18 26.92-19.321 7.48-8.152 13.32-17.5 17.5-28.07 4.18-10.582 6.27-21.813 6.27-33.691v-5.29c0-1.761-0.11-2.968-0.32-3.628h-147.31c0.66-9.25 2.81-17.782 6.44-25.59 3.64-7.832 8.31-14.59 14.04-20.321 5.72-5.7301 12.27-10.191 19.65-13.371 7.37-3.1992 15.24-4.8008 23.61-4.8008 5.51 0 11.01 0.7696 16.52 2.3125 5.5 1.5469 10.57 3.6368 15.19 6.2774 4.63 2.6406 8.81 5.8906 12.55 9.7496 3.75 3.852 6.61 8.09 8.59 12.711l19.49-5.289c-2.64-6.379-6.39-12.172-11.23-17.332-4.85-5.1797-10.46-9.6992-16.85-13.551-6.39-3.8476-13.43-6.8164-21.14-8.9062-7.71-2.0899-15.74-3.1406-24.11-3.1406" style="fill:#fff"/><path d="m1453.2 73.648-63.41 88.192-37-34.348v-53.844h-22.46v241.11h22.46v-163.82l96.78 94.461h25.43l-70.35-70.351 72.99-101.4h-24.44" style="fill:#fff"/><path d="m1506.4 314.76h22.46v-202.13c0-6.387 1.76-11.399 5.28-15.027 3.52-3.6328 8.48-5.4532 14.86-5.4532 2.43 0 5.29 0.3321 8.59 0.9922 3.3 0.6602 6.39 1.5391 9.25 2.6407l3.96-18.16c-4.19-1.7695-9.31-3.1992-15.36-4.3008-6.05-1.0898-11.28-1.6484-15.68-1.6484-10.35 0-18.5 2.9179-24.45 8.75-5.94 5.8281-8.91 14.039-8.91 24.609v209.73" style="fill:#fff"/><path d="m1606.1 158.87c0-9.699 1.65-18.66 4.95-26.93 3.31-8.25 7.77-15.511 13.38-21.789 5.62-6.273 12.22-11.172 19.82-14.703 7.6-3.5273 15.68-5.2773 24.28-5.2773 8.58 0 16.68 1.8086 24.27 5.4492 7.59 3.6289 14.25 8.5779 19.98 14.859 5.73 6.282 10.24 13.59 13.54 21.961 3.31 8.368 4.96 17.391 4.96 27.079 0 9.472-1.65 18.449-4.96 26.929-3.3 8.473-7.81 15.852-13.54 22.121-5.73 6.27-12.39 11.239-19.98 14.871-7.59 3.629-15.69 5.45-24.27 5.45-8.6 0-16.64-1.821-24.12-5.45-7.49-3.632-14.09-8.64-19.81-15.031-5.73-6.39-10.24-13.82-13.55-22.301-3.3-8.468-4.95-17.55-4.95-27.238zm62.43-88.519c-12.55 0-24.01 2.3672-34.36 7.0976-10.35 4.7422-19.32 11.172-26.91 19.32-7.6 8.1405-13.49 17.622-17.67 28.41-4.19 10.781-6.28 22.129-6.28 34.019 0 12.102 2.15 23.551 6.45 34.352 4.28 10.781 10.23 20.25 17.83 28.398 7.6 8.141 16.56 14.641 26.91 19.492 10.35 4.84 21.69 7.258 34.03 7.258 12.32 0 23.72-2.418 34.18-7.258 10.45-4.851 19.49-11.351 27.09-19.492 7.58-8.148 13.53-17.617 17.83-28.398 4.29-10.801 6.43-22.25 6.43-34.352 0-11.89-2.09-23.238-6.27-34.019-4.19-10.789-10.08-20.27-17.67-28.41-7.6-8.1484-16.62-14.578-27.08-19.32-10.46-4.7304-21.97-7.0976-34.51-7.0976" style="fill:#fff"/><path d="m1867 90.172c6.6 0 13.1 1.207 19.48 3.6289 6.39 2.418 12.17 5.6601 17.35 9.7502 5.16 4.07 9.52 8.629 13.04 13.699s5.83 10.242 6.94 15.52v53.179c-2.43 6.16-5.73 11.891-9.91 17.18-4.18 5.281-8.92 9.793-14.2 13.531-5.29 3.75-10.96 6.719-17.01 8.93-6.06 2.191-12.17 3.301-18.33 3.301-9.69 0-18.33-2.039-25.93-6.121-7.6-4.071-14.04-9.411-19.32-16.008-5.28-6.61-9.31-14.09-12.06-22.461s-4.13-16.852-4.13-25.43c0-9.25 1.66-18.062 4.96-26.43 3.3-8.371 7.87-15.679 13.7-21.961 5.83-6.281 12.61-11.23 20.31-14.859 7.71-3.6406 16.08-5.4492 25.11-5.4492zm-6.28-18.832c-11.88 0-22.73 2.4805-32.53 7.4297-9.8 4.961-18.28 11.5-25.43 19.66-7.15 8.1293-12.72 17.5-16.68 28.062-3.96 10.578-5.94 21.477-5.94 32.707 0 11.883 1.92 23.281 5.78 34.18 3.85 10.902 9.29 20.422 16.35 28.57 7.04 8.141 15.46 14.641 25.26 19.492 9.79 4.84 20.64 7.258 32.53 7.258 14.75 0 27.53-3.687 38.32-11.058 10.78-7.391 20.03-16.68 27.74-27.911v36h20.15v-172.74c0-11.891-2.27-22.402-6.78-31.543-4.51-9.1289-10.56-16.789-18.16-22.949-7.6-6.168-16.52-10.789-26.75-13.879-10.24-3.082-21.09-4.6211-32.54-4.6211-19.81 0-35.78 3.5312-47.89 10.57-12.11 7.0508-21.9 16.512-29.39 28.41l13.87 10.891c6.82-11 15.85-19.102 27.08-24.27 11.23-5.1719 23.34-7.7696 36.33-7.7696 8.37 0 16.3 1.1602 23.78 3.4688 7.49 2.3086 14.04 5.7305 19.66 10.238 5.61 4.5195 10.07 10.242 13.38 17.18 3.3 6.9335 4.95 15.023 4.95 24.273v34.02c-6.61-11.012-15.64-19.703-27.08-26.09-11.46-6.3906-23.46-9.5821-36.01-9.5821" style="fill:#fff"/><path d="m2006.7 158.87c0-9.699 1.65-18.66 4.95-26.93 3.31-8.25 7.77-15.511 13.38-21.789 5.62-6.273 12.22-11.172 19.82-14.703 7.6-3.5273 15.68-5.2773 24.28-5.2773 8.58 0 16.68 1.8086 24.27 5.4492 7.59 3.6289 14.25 8.5779 19.98 14.859 5.73 6.282 10.24 13.59 13.54 21.961 3.31 8.368 4.96 17.391 4.96 27.079 0 9.472-1.65 18.449-4.96 26.929-3.3 8.473-7.81 15.852-13.54 22.121-5.73 6.27-12.39 11.239-19.98 14.871-7.59 3.629-15.69 5.45-24.27 5.45-8.6 0-16.64-1.821-24.12-5.45-7.49-3.632-14.09-8.64-19.81-15.031-5.73-6.39-10.24-13.82-13.55-22.301-3.3-8.468-4.95-17.55-4.95-27.238zm62.43-88.519c-12.55 0-24.01 2.3672-34.36 7.0976-10.35 4.7422-19.32 11.172-26.91 19.32-7.6 8.1405-13.49 17.622-17.67 28.41-4.19 10.781-6.28 22.129-6.28 34.019 0 12.102 2.15 23.551 6.45 34.352 4.28 10.781 10.23 20.25 17.83 28.398 7.6 8.141 16.56 14.641 26.91 19.492 10.35 4.84 21.69 7.258 34.03 7.258 12.32 0 23.72-2.418 34.18-7.258 10.45-4.851 19.49-11.351 27.09-19.492 7.58-8.148 13.53-17.617 17.83-28.398 4.29-10.801 6.43-22.25 6.43-34.352 0-11.89-2.09-23.238-6.27-34.019-4.19-10.789-10.07-20.27-17.67-28.41-7.6-8.1484-16.62-14.578-27.08-19.32-10.46-4.7304-21.97-7.0976-34.51-7.0976" style="fill:#fff"/><path d="m2189 73.648v32.372h19.49v-32.372h-19.49" style="fill:#fff"/><path d="m2399.4 73.648h-22.46v96.122c0 20.472-3.03 35.339-9.08 44.589-6.06 9.243-15.37 13.86-27.91 13.86-6.61 0-13.22-1.207-19.82-3.629-6.6-2.418-12.71-5.84-18.33-10.231-5.61-4.418-10.62-9.64-15.03-15.699-4.4-6.051-7.6-12.601-9.58-19.648v-105.36h-22.45v172.08h20.47v-38.968c7.05 12.547 17.12 22.668 30.22 30.379 13.1 7.699 27.36 11.558 42.78 11.558 9.46 0 17.5-1.769 24.11-5.277 6.6-3.531 11.88-8.481 15.85-14.863 3.96-6.387 6.82-14.2 8.58-23.45 1.77-9.25 2.65-19.488 2.65-30.718v-100.74" style="fill:#fff"/><path d="m2585 168.77c-0.66 9.25-2.81 17.679-6.44 25.269-3.63 7.602-8.25 14.141-13.87 19.652-5.61 5.5-12.11 9.801-19.49 12.879-7.37 3.078-15.24 4.621-23.61 4.621s-16.3-1.543-23.78-4.621c-7.49-3.078-14.04-7.379-19.65-12.879-5.62-5.511-10.14-12.109-13.55-19.812-3.41-7.719-5.45-16.078-6.11-25.109zm-63.41-98.418c-12.55 0-24.06 2.3672-34.52 7.0976-10.45 4.7422-19.54 11.23-27.24 19.48-7.72 8.2693-13.71 17.789-18 28.582-4.3 10.777-6.44 22.34-6.44 34.679 0 12.11 2.14 23.5 6.44 34.18 4.29 10.68 10.23 20.031 17.83 28.07s16.68 14.43 27.25 19.161c10.57 4.73 22.01 7.097 34.34 7.097 12.56 0 24.07-2.367 34.53-7.097 10.45-4.731 19.42-11.18 26.91-19.321 7.48-8.152 13.32-17.5 17.51-28.07 4.18-10.582 6.27-21.813 6.27-33.691v-5.29c0-1.761-0.11-2.968-0.33-3.628h-147.31c0.67-9.25 2.81-17.782 6.45-25.59 3.63-7.832 8.31-14.59 14.03-20.321 5.72-5.7301 12.28-10.191 19.66-13.371 7.37-3.1992 15.24-4.8008 23.61-4.8008 5.5 0 11.01 0.7696 16.52 2.3125 5.49 1.5469 10.56 3.6368 15.18 6.2774 4.63 2.6406 8.81 5.8906 12.56 9.7496 3.74 3.852 6.6 8.09 8.58 12.711l19.49-5.289c-2.64-6.379-6.39-12.172-11.22-17.332-4.86-5.1797-10.47-9.6992-16.85-13.551-6.4-3.8476-13.44-6.8164-21.14-8.9062-7.71-2.0899-15.74-3.1406-24.11-3.1406" style="fill:#fff"/><path d="m2722.5 81.91c-1.33-0.6602-3.26-1.5391-5.78-2.6407-2.54-1.1093-5.45-2.2109-8.75-3.3007-3.32-1.1094-7.06-2.0977-11.24-2.9766-4.18-0.8711-8.59-1.3203-13.21-1.3203-4.84 0-9.47 0.6601-13.87 1.9765-4.41 1.3204-8.26 3.3516-11.56 6.1211-3.31 2.7422-5.94 6.211-7.93 10.402-1.98 4.1797-2.97 9.0195-2.97 14.527v123.19h-23.78v17.839h23.78v58.129h22.46v-58.129h39.63v-17.839h-39.63v-116.91c0.43-6.39 2.69-11.07 6.77-14.05 4.07-2.9609 8.75-4.4492 14.04-4.4492 6.38 0 12 1.0508 16.84 3.1406 4.85 2.0898 7.93 3.5703 9.25 4.4609l5.95-18.172" style="fill:#fff"/><g clip-path="url(#clipPath875)"><g clip-path="url(#clipPath881)"><path d="m791.16 4267.4h3686.8v-3650.4h-3686.8v3650.4" style="fill:#5575c3"/></g></g><g clip-path="url(#clipPath891)"><path d="m-799.61 3605.5h4746.8v-3419.8h-4746.8v3419.8" style="fill:#3bac49"/></g><g clip-path="url(#clipPath901)"><path d="m-988.95 4743.1h2762v-3576.8h-2762v3576.8" style="fill:#f5b60b"/></g><g clip-path="url(#clipPath911)"><path d="m-799.61 5723.8h4759.7v-3419.8h-4759.7v3419.8" style="fill:#e8302f"/></g></g></g></svg>

<?xml version="1.0" encoding="UTF-8" standalone="no"?>
<svg
   xmlns:dc="http://purl.org/dc/elements/1.1/"
   xmlns:cc="http://creativecommons.org/ns#"
   xmlns:rdf="http://www.w3.org/1999/02/22-rdf-syntax-ns#"
   xmlns:svg="http://www.w3.org/2000/svg"
   xmlns="http://www.w3.org/2000/svg"
   xmlns:sodipodi="http://sodipodi.sourceforge.net/DTD/sodipodi-0.dtd"
   xmlns:inkscape="http://www.inkscape.org/namespaces/inkscape"
   inkscape:version="1.0beta2 (2b71d25, 2019-12-03)"
   sodipodi:docname="google.svg"
   id="svg898"
   xml:space="preserve"
   viewBox="0 0 465.18837 474.69479"
   version="1.1"
   height="474.69479"
   width="465.18839"><sodipodi:namedview
     inkscape:current-layer="svg898"
     inkscape:window-maximized="0"
     inkscape:window-y="417"
     inkscape:window-x="2191"
     inkscape:cy="315.64422"
     inkscape:cx="232.60001"
     inkscape:zoom="1.6806057"
     fit-margin-bottom="0"
     fit-margin-right="0"
     fit-margin-left="0"
     fit-margin-top="0"
     showgrid="false"
     id="namedview900"
     inkscape:window-height="1456"
     inkscape:window-width="2121"
     inkscape:pageshadow="2"
     inkscape:pageopacity="0"
     guidetolerance="10"
     gridtolerance="10"
     objecttolerance="10"
     borderopacity="1"
     inkscape:document-rotation="0"
     bordercolor="#666666"
     pagecolor="#ffffff" /><metadata
     id="metadata833"><rdf:RDF><cc:Work
         rdf:about=""><dc:format>image/svg+xml</dc:format><dc:type
           rdf:resource="http://purl.org/dc/dcmitype/StillImage" /><dc:title></dc:title></cc:Work></rdf:RDF></metadata><defs
     id="defs850"><clipPath
       id="clipPath875"><path
         inkscape:connector-curvature="0"
         id="path835"
         d="M 0,0 H 3489 V 4735 H 0 Z" /></clipPath><clipPath
       id="clipPath881"><path
         inkscape:connector-curvature="0"
         id="path838"
         clip-rule="evenodd"
         d="m 3489,2914.3 c 0,126.22 -11.32,247.6 -32.37,364.11 h -1676.5 v -688.58 h 958.03 c -41.27,-222.51 -166.69,-411.05 -355.21,-537.27 v -446.65 h 575.29 c 336.61,309.91 530.8,766.26 530.8,1308.4 z" /></clipPath><clipPath
       id="clipPath891"><path
         inkscape:connector-curvature="0"
         id="path841"
         clip-rule="evenodd"
         d="m 1780.1,1174.6 c 480.63,0 883.59,159.4 1178.1,431.27 l -575.29,446.65 C 2223.5,1945.71 2019.6,1882.6 1780.09,1882.6 c -463.64,0 -856.08,313.14 -996.05,733.9 H 189.32 v -461.22 c 292.91,-581.78 894.9,-980.68 1590.8,-980.68 z" /></clipPath><clipPath
       id="clipPath901"><path
         inkscape:connector-curvature="0"
         id="path844"
         clip-rule="evenodd"
         d="m 784.06,2616.5 c -35.61,106.8 -55.836,220.89 -55.836,338.22 0,117.32 20.226,231.41 55.836,338.22 v 461.2 H 189.34 C 68.77,3513.83 0,3241.96 0,2954.72 0,2667.47 68.773,2395.59 189.34,2155.28 Z" /></clipPath><clipPath
       id="clipPath911"><path
         inkscape:connector-curvature="0"
         id="path847"
         clip-rule="evenodd"
         d="m 1780.1,4026.9 c 261.35,0 496.01,-89.82 680.49,-266.21 l 510.57,510.57 c -308.29,287.24 -711.24,463.64 -1191.1,463.64 -695.87,0 -1297.9,-398.91 -1590.8,-980.69 l 594.72,-461.2 c 139.98,420.75 532.41,733.89 996.05,733.89 z" /></clipPath></defs><g
     transform="translate(0,-0.015783)"
     id="g954"><g
       clip-path="url(#clipPath875)"
       id="g880"
       transform="matrix(0.13333,0,0,-0.13333,0,631.32)"><g
         clip-path="url(#clipPath881)"
         id="g878"><path
           d="m 791.16,4267.4 h 3686.8 V 617 H 791.16 v 3650.4"
           style="fill:#5575c3"
           id="path876"
           inkscape:connector-curvature="0" /></g></g><g
       clip-path="url(#clipPath891)"
       id="g884"
       transform="matrix(0.13333,0,0,-0.13333,0,631.32)"><path
         d="m -799.61,3605.5 h 4746.8 V 185.7 h -4746.8 v 3419.8"
         style="fill:#3bac49"
         id="path882"
         inkscape:connector-curvature="0" /></g><g
       clip-path="url(#clipPath901)"
       id="g888"
       transform="matrix(0.13333,0,0,-0.13333,0,631.32)"><path
         d="m -988.95,4743.1 h 2762 V 1166.3 h -2762 v 3576.8"
         style="fill:#f5b60b"
         id="path886"
         inkscape:connector-curvature="0" /></g><g
       clip-path="url(#clipPath911)"
       id="g892"
       transform="matrix(0.13333,0,0,-0.13333,0,631.32)"><path
         d="m -799.61,5723.8 h 4759.7 V 2304 h -4759.7 v 3419.8"
         style="fill:#e8302f"
         id="path890"
         inkscape:connector-curvature="0" /></g></g></svg>
